X: 480
T: Xiu hebao
L: 1/8
M: 4/4
K: Bb
b2b df4 [I:setbarnb 1]| 
b c' f' c'b4 | 
b c'f'2f' d' c' b | 
b a g df4 | 
c' f' g b c' f' d' c' | 
b2c' gf2f d | 
c'2b c' f' c' b a | 
g f/ g/ f cB4 | 
g f/ g/ c df2f d | 
c' c' b c' f' c' b a | 
g f/ g/ f cB4 |]

@@@ Tune index: 9354
